X: 7154
T: Chùir I Glùin Air A' Bhodaich
R: reel
M: 4/4
K: Gmajor
[M:3/4]D GB|d4(Bd)|e4 (GB)|d4 e<d|[M:4/4]BA3- AD G<B|
[M:3/4]d4(Bd)|{d}e (d3{ed}B2)|(A4 A<B|[M:4/4]{cB}A)G3- Gd e<f|
[M:3/4] g4 (fg)|{g}a4 (ef)|{f}g4(a{ba}g|f)d3 [1(ef|
g4) fg|.a2 (d3{ed}B)|A4 (AB|A)G2:|
[2e<f|(g3{ag}e) f<d|(e2.d2) B2|A4 (AB|{cB}A) [G,2G2]||

